!!!!SEGMENT: pl-kk--i-533--008_studzinski-piotr--nr-8-ave-maria-gratia-plena.krn
!!!cenid: 18xx:4477
!!!COM: Studziński, Piotr
!!!COM-rismID: pe50044409
!!!CDT: 1825/10/16-1869/04/20
!!!CNT: Polish
!!!OTL: Nr 8. Ave Maria gratia plena
!!!PDT:
!!!AGN: Sacred
!!!YEC: Copyright 2022 Narodowy Instytut Fryderyka Chopina (https://polishscores.org)
!!!YEM: License CC-BY-4.0 (https://creativecommons.org/licenses/by/4.0)
!!!SMS-siglum: PL-Kk
!!!SMS-shelfmark: I.533
!!!SMS-variant: Soprano: PL-Kk I.533: 5 ; Alto: PL-Kk I.533: 10-11 ; Tenor: PL-Kk I.533: 16 ; Basso: PL-Kk I.533: 21
!!!SMS-altvar: Partytura: PL-Kk I.533: 29
!!!SMS-shelfwork: 008 W
!!!NIFC-rismSourceID: 1001210519
!!!NIFC-rismChildID: 1001210551
!!!NIFC-islandoraID: pl-kk:16805
!!!URL-pdf-islandora: https://repozytorium.nifc.pl/islandora/object/pl-kk%3A16805/datastream/PDF/view
!!!URL-scan: https://polish.musicsources.pl/pl/lokalizacje/galeria/rekopisy/7160/1 @EN{Scan on Polish Music Sources Website} @PL{Skany w portalu Dziedzictwo Muzyki Polskiej w otwartym dostępie}
!!!IIIF:
!!!ONB-nifc:
!!!AIN: 1 alto 1 bass 1 soprn 1 tenor
!!!key: C
**kern	**text	**dynam	**kern	**text	**dynam	**kern	**text	**dynam	**kern	**text	**dynam
*part4	*part4	*part4	*part3	*part3	*part3	*part2	*part2	*part2	*part1	*part1	*part1
*staff4	*staff4	*	*staff3	*staff3	*	*staff2	*staff2	*	*staff1	*staff1	*
*ICvox	*	*	*ICvox	*	*	*ICvox	*	*	*ICvox	*	*
*Ibass	*	*	*Itenor	*	*	*Ialto	*	*	*Isoprn	*	*
*I"Basſo	*	*	*I"Tenor	*	*	*I"Alto	*	*	*I"Soprano	*	*
*I'B	*	*	*I'T	*	*	*I'A	*	*	*I'S	*	*
*clefF4	*	*	*clefC4	*	*	*clefC3	*	*	*clefG2	*	*
*k[]	*	*	*k[]	*	*	*k[]	*	*	*k[]	*	*
*C:	*	*	*C:	*	*	*C:	*	*	*C:	*	*
*M4/4	*	*	*M4/4	*	*	*M4/4	*	*	*M4/4	*	*
*met(c)	*	*	*met(c)	*	*	*met(c)	*	*	*met(c)	*	*
*>[A,A1,A,A2,B]	*>[A,A1,A,A2,B]	*>[A,A1,A,A2,B]	*>[A,A1,A,A2,B]	*>[A,A1,A,A2,B]	*>[A,A1,A,A2,B]	*>[A,A1,A,A2,B]	*>[A,A1,A,A2,B]	*>[A,A1,A,A2,B]	*>[A,A1,A,A2,B]	*>[A,A1,A,A2,B]	*>[A,A1,A,A2,B]
=1	=1	=1	=1	=1	=1	=1	=1	=1	=1	=1	=1
*>A	*>A	*>A	*>A	*>A	*>A	*>A	*>A	*>A	*>A	*>A	*>A
*all\right	*	*	*all\right	*	*	*all\right	*	*	*all\right	*	*
*2\right	*	*	*2\right	*	*	*2\right	*	*	*2\right	*	*
!!LO:TX:t=P:problem:all\right
!LO:TX:t=P:problem:t. 1-4 wykreślone ołówkiem	!	!	!LO:TX:t=P:problem:t. 1-4 wykreślone ołówkiem	!	!	!LO:TX:t=P:problem:t. 1-4 wykreślone ołówkiem	!	!	!	!	!
!LO:TX:a:t=Poważnie i uczuciowo	!	!LO:DY:b:rj	!LO:TX:a:t=Powaznie i uczuciowo	!	!	!LO:TX:a:t=solo	!	!LO:DY:b:rj	!LO:TX:a:t=4	!	!
2E 2AA/	A-	pp	2A\	A-	pp	2c\	A-	pp	00r	.	.
4F 4AA/	-ve	.	4A\	-ve	.	4d\	-ve	.	.	.	.
4F#X 4AA/	Ma-	.	4c\	Ma-	.	4d#X\	Ma-	.	.	.	.
=2	=2	=2	=2	=2	=2	=2	=2	=2	=2	=2	=2
2G 2GG/	-ri-	.	2c\	-ri-	.	2e\	-ri-	.	.	.	.
2E 2GG/	-a	.	2G\	-a	.	2c\	-a	.	.	.	.
=3	=3	=3	=3	=3	=3	=3	=3	=3	=3	=3	=3
2D 2GG/	gra-	.	2F/	gra-	.	2B/	gra-	.	.	.	.
4D 4GG/	-ti-	.	4F/	-ti-	.	4A/	-ti-	.	.	.	.
4D 4GG/	-a	.	4F/	-a	.	4B/	-a	.	.	.	.
=4	=4	=4	=4	=4	=4	=4	=4	=4	=4	=4	=4
2E 2C\	ple-	.	2G/	ple-	.	2c/	ple-	.	.	.	.
4E 4C\	-na	.	4G/	-na	.	4c/	-na	.	.	.	.
4r	.	.	4r	.	.	4r	.	.	.	.	.
=5	=5	=5	=5	=5	=5	=5	=5	=5	=5	=5	=5
!	!	!LO:DY:b:rj	!	!	!	!	!	!LO:DY:b:rj	!LO:TX:a:t=solo	!	!LO:DY:b:rj
2C/	A-	p	2G/	A-	p	2e\	A-	p	2g/	A-	p
4C/	-ve	<	4G/	-ve	<	4c\	-ve	.	4e/	-ve	<
4C/	Ma-	[[	4G/	Ma-	[[	4e\	Ma-	.	4cc/	Ma-	[[
=6	=6	=6	=6	=6	=6	=6	=6	=6	=6	=6	=6
2D/	-ri-	>	2G/	-ri-	>	2f\	-ri-	.	2cc\	-ri-	>
4D/	-a	]	4G/	-a	]	4f\	-a	.	4b\	-a	]
4r	.	.	4r	.	.	4r	.	.	4r	.	.
!LO:LB:g=original	!	!	!LO:LB:g=original	!	!	!LO:LB:g=original	!	!	!	!	!
=7	=7	=7	=7	=7	=7	=7	=7	=7	=7	=7	=7
2BB/	gra-	.	2G/	gra-	.	2d\	gra-	.	2g/	gra-	.
4BB/	-ti-	.	4G/	-ti-	<	4d\	-ti-	.	4f/	-ti-	<
4BB/	-a	<[	4G/	-a	[[	4f\	-a	.	4dd/	-a	[[
=8	=8	=8	=8	=8	=8	=8	=8	=8	=8	=8	=8
2C/	ple-	>	2G/	ple-	>	2e\	ple-	.	2dd\	ple-	>
4C/	-na	]	4G/	-na	]	4e\	-na	.	4cc\	-na	]
4r	.	.	4r	.	.	4r	.	.	4r	.	.
=9	=9	=9	=9	=9	=9	=9	=9	=9	=9	=9	=9
!	!	!LO:DY:b:rj	!	!	!LO:DY:b:rj	!	!	!LO:DY:b:rj	!	!	!LO:DY:a:rj
2c\	Do-	f	2e\	Do-	f	2g\	Do-	f	2ee\	Do-	f
4B\	-mi-	.	4d\	-mi-	.	4g#X\	-mi-	.	4ee\	-mi-	.
4B\	-nus	.	4d\	-nus	.	4g#\	-nus	.	4ee\	-nus	.
=10	=10	=10	=10	=10	=10	=10	=10	=10	=10	=10	=10
2A\	te-	.	2c\	te-	.	2a\	te-	.	(2ee\	te-	.
4A\	-cum	.	4c\	-cum	.	4a\	-cum	.	4dd\)	.	.
4r	.	.	4r	.	.	4r	.	.	4cc\	cum	.
!	!	!	!	!	!	!	!	!	!LO:LB:g=original	!	!
=11	=11	=11	=11	=11	=11	=11	=11	=11	=11	=11	=11
2D\	Do-	.	2d\	Do-	.	2g\	Do-	.	4.b/	Do-	.
.	.	.	.	.	.	.	.	.	(16a/LL	.	.
.	.	.	.	.	.	.	.	.	16b/JJ)	.	.
4D\	-mi-	.	4A\	-mi-	.	4f#X\	-mi-	.	4cc/	-mi-	.
4D\	-nus	.	4c\	-nus	.	4d\	-nus	.	4f#X/	-nus	.
=12	=12	=12	=12	=12	=12	=12	=12	=12	=12	=12	=12
2G\	te-	.	2c\	te-	.	2d\	te-	.	2a/	te-	.
4G\	-cum	.	4B\	-cum	.	4d\	-cum	.	4g/	-cum	.
4r	.	.	4r	.	.	4r	.	.	4r	.	.
!LO:LB:g=original	!	!	!LO:LB:g=original	!	!	!LO:LB:g=original	!	!	!	!	!
=13	=13	=13	=13	=13	=13	=13	=13	=13	=13	=13	=13
!	!	!LO:DY:b:rj	!	!	!LO:DY:b:rj	!	!	!LO:DY:b:rj	!LO:TX:a:t=1	!	!
2.G 2.BB/	be-	p	2.G/	be-	p	2.d\	be-	p	1r	.	.
4G 4BB/	-ne-	.	4G/	-ne-	.	4d\	-ne-	.	.	.	.
=14	=14	=14	=14	=14	=14	=14	=14	=14	=14	=14	=14
!	!	!	!	!	!	!	!	!	!	!	!LO:DY:b:rj
2G 2C\	-dic-	.	2c\	-dic-	.	2e\	-dic-	.	4g/	be-	p
.	.	.	.	.	.	.	.	.	8ee\	.	.
.	.	.	.	.	.	.	.	.	8b\	-ne-	.
2G 2C\	-ta	.	2c\	-ta	.	2e\	-ta	.	(8dd\L	-dic-	.
.	.	.	.	.	.	.	.	.	8cc\J)	.	.
.	.	.	.	.	.	.	.	.	(8b\L	-ta	.
.	.	.	.	.	.	.	.	.	8a\J)	.	.
=15	=15	=15	=15	=15	=15	=15	=15	=15	=15	=15	=15
4G 4BB\	tu	.	4G/	tu	.	4d\	tu	.	(8g/L	tu	.
.	.	.	.	.	.	.	.	.	8f/J)	.	.
4G 4BB\	in	.	4G/	in	.	4d\	in	.	(8e/L	in	.
.	.	.	.	.	.	.	.	.	8f/J)	.	.
4G 4BB\	mu-	.	4d\	mu-	.	4f\	mu-	.	4a/	mu-	.
4G 4BB\	-li-	.	4d\	-li-	.	4f\	-li-	.	4g/	-li-	.
=16	=16	=16	=16	=16	=16	=16	=16	=16	=16	=16	=16
4.G 4.C\	-e-	.	4.B\	-e-	.	4.d\	-e-	.	4.f/	-e-	.
8G 8C\	-ri-	.	8G/	-ri-	.	8c\	-ri-	.	8e/	-ri-	.
4G 4C\	-bus	.	4G/	-bus	.	4c\	-bus	.	4e/	-bus	.
4r	.	.	4r	.	.	4r	.	.	4r	.	.
!	!	!	!	!	!	!	!	!	!LO:LB:g=original	!	!
=17!|:	=17!|:	=17!|:	=17!|:	=17!|:	=17!|:	=17!|:	=17!|:	=17!|:	=17!|:	=17!|:	=17!|:
!	!	!LO:DY:b:rj	!	!	!LO:DY:b:rj	!	!	!LO:DY:b:rj	!	!	!LO:DY:b:rj
2c 2B-X\	et	f	2e\	et	f	2g\	et	f	2cc\	et	f
4c 4B-\	be-	.	4e\	be-	.	4g\	be-	.	4cc\	be-	.
4c 4B-\	-ne-	.	4e\	-ne-	.	4g\	-ne-	.	4cc\	-ne-	.
=18	=18	=18	=18	=18	=18	=18	=18	=18	=18	=18	=18
2c 2A\	-di-	.	2c\	-dic-	.	2f\	-dic-	.	4.cc/	-dic-	.
.	.	.	.	.	.	.	.	.	8a/	.	.
4c 4A\	-ctus	.	4c\	-tus	.	4f\	-tus	.	4f/	-tus	.
4r	.	.	4r	.	.	4r	.	.	4r	.	.
!LO:LB:g=original	!	!	!LO:PB:g=original	!	!	!LO:LB:g=original	!	!	!	!	!
=19	=19	=19	=19	=19	=19	=19	=19	=19	=19	=19	=19
4A 4G\	fru-	.	4c#\	fru-	.	4e\	fru-	.	4a/	fru-	.
4A 4G\	-ctus	.	4c#\	-ctus	.	4e\	-ctus	.	4a/	-ctus	.
4A 4G\	ven-	.	4c#\	ven-	.	4e\	ven-	.	4a/	ven-	.
4A 4G\	-tris	.	4c#\	-tris	.	4e\	-tris	.	4a/	-tris	.
=20	=20	=20	=20	=20	=20	=20	=20	=20	=20	=20	=20
2A 2F\	tu-	.	2d\	tu-	.	2d\	tu-	.	(4.a/	tu-	.
.	.	.	.	.	.	.	.	.	8f/)	.	.
4A 4F\	-i	.	4A\	-i	.	4d\	-i	.	4d/	-i	.
4r	.	.	4r	.	.	4r	.	.	4r	.	.
=21	=21	=21	=21	=21	=21	=21	=21	=21	=21	=21	=21
!	!	!LO:DY:b:rj	!	!	!	!	!	!LO:DY:b:rj	!	!	!LO:DY:b:rj
2.F\	be-	p	2.G/	be-	p	2.B\	be-	p	(8d/L	be-	p
.	.	.	.	.	.	.	.	.	8e/	.	.
.	.	.	.	.	.	.	.	.	8f/	.	.
.	.	.	.	.	.	.	.	.	8g/J	.	.
.	.	.	.	.	.	.	.	.	8a/L	.	.
.	.	.	.	.	.	.	.	.	8b/J)	.	.
4F\	-ne-	.	4G/	-ne-	.	4B\	-ne-	.	8cc/L	-ne-	.
.	.	.	.	.	.	.	.	.	8dd/J	.	.
=22	=22	=22	=22	=22	=22	=22	=22	=22	=22	=22	=22
2E\	-dic-	.	2G/	-dic-	.	2c\	-dic-	.	8ee/L	-dic-	.
.	.	.	.	.	.	.	.	.	8b/	.	.
.	.	.	.	.	.	.	.	.	8cc/	.	.
.	.	.	.	.	.	.	.	.	8g#X/J	.	.
2F\	-tus	.	2A/	-tus	.	2c\	-tus	.	8a/L	.	.
.	.	.	.	.	.	.	.	.	8e/	.	.
.	.	.	.	.	.	.	.	.	8f/	-tus	.
.	.	.	.	.	.	.	.	.	8d/J	.	.
!	!	!	!	!	!	!	!	!	!LO:LB:g=original	!	!
=23	=23	=23	=23	=23	=23	=23	=23	=23	=23	=23	=23
8G\L	fru-	.	4G/	fru-	.	4c\	fru-	.	4c/	fru-	.
8c\J	.	.	.	.	.	.	.	.	.	.	.
8B\L	-ctus	.	4c\	-ctus	.	4e\	-ctus	.	4g/	-ctus	.
8A\J	.	.	.	.	.	.	.	.	.	.	.
8G\L	ven-	.	4B\	ven-	.	4f\	ven-	.	4g/	ven-	.
8F\J	.	.	.	.	.	.	.	.	.	.	.
8E\L	-tris	.	4B\	-tris	.	4f\	-tris	.	4g/	-tris	.
8D\J	.	.	.	.	.	.	.	.	.	.	.
=24	=24	=24	=24	=24	=24	=24	=24	=24	=24	=24	=24
!!LO:TX:a:B:t=1mo
*>A1	*>A1	*>A1	*>A1	*>A1	*>A1	*>A1	*>A1	*>A1	*>A1	*>A1	*>A1
2C\	tu-	.	(8c\L	tu-	.	2e\	tu-	.	2e/	tu-	.
.	.	.	8E\	.	.	.	.	.	.	.	.
.	.	.	8G\	.	.	.	.	.	.	.	.
.	.	.	8A\J)	.	.	.	.	.	.	.	.
4C\	-i	.	4G/	-i	.	4c\	-i	.	4e/	-i	.
4r	.	.	4r	.	.	4r	.	.	4r	.	.
!LO:LB:g=original	!	!	!LO:LB:g=original	!	!	!LO:LB:g=original	!	!	!	!	!
=25:|!	=25:|!	=25:|!	=25:|!	=25:|!	=25:|!	=25:|!	=25:|!	=25:|!	=25:|!	=25:|!	=25:|!
!!LO:TX:a:B:t=2do
*>A2	*>A2	*>A2	*>A2	*>A2	*>A2	*>A2	*>A2	*>A2	*>A2	*>A2	*>A2
!	!	!	!	!	!	!LO:TX:t=P:problem:brak wolty	!	!	!	!	!
8C\L	tu-	.	4c\	tu-	.	4e\	tu-	.	4g/	tu-	.
8G\J	.	.	.	.	.	.	.	.	.	.	.
8E\L	-i	.	4c\	-i	.	4e\	-i	.	4g/	-i	.
8C\J	.	.	.	.	.	.	.	.	.	.	.
(4FF/	Je-	.	2A\	Je-	.	2c\	Je-	.	2f/	Je-	.
4AA/)	.	.	.	.	.	.	.	.	.	.	.
=26	=26	=26	=26	=26	=26	=26	=26	=26	=26	=26	=26
*>B	*>B	*>B	*>B	*>B	*>B	*>B	*>B	*>B	*>B	*>B	*>B
4C/	-su	.	4G/	-su	.	4c\	-su	.	4e/	-su	.
4r	.	.	4r	.	.	4r	.	.	4r	.	.
2GG/	Je-	.	2F/	Je-	.	2B\	Je-	.	(4e/	Je-	.
.	.	.	.	.	.	.	.	.	4d/)	.	.
=27	=27	=27	=27	=27	=27	=27	=27	=27	=27	=27	=27
4C/	-su	.	4E/	-su	.	4c\	-su	.	4c/	-su	.
4c\	San-	.	4c\	San-	.	4e\	San-	.	4g/	San-	.
4c\	-cta	.	4c\	-cta	.	4e\	-cta	.	4g/	-cta	.
4c\	Ma-	.	4c\	Ma-	.	4e\	Ma-	.	4g/	Ma-	.
=28	=28	=28	=28	=28	=28	=28	=28	=28	=28	=28	=28
!	!	!LO:DY:b	!	!	!LO:DY:b	!	!	!LO:DY:b	!	!	!
2B\	-ri-	sfz	2d\	-ri-	sfz <	2f\	-ri-	sfz <	2a-X/	-ri-	<
.	.	.	.	.	[	.	.	[	.	.	[
.	.	.	.	.	>	.	.	>	.	.	>
.	.	.	.	.	]	.	.	]	.	.	]
4c\	-a	.	4c\	-a	.	4e\	-a	.	4g/	-a	.
4r	.	.	4r	.	.	4r	.	.	4r	.	.
!	!	!	!	!	!	!	!	!	!LO:LB:g=original	!	!
=29	=29	=29	=29	=29	=29	=29	=29	=29	=29	=29	=29
4r	.	.	4r	.	.	4r	.	.	4r	.	.
2A\	Ma-	.	2A\	Ma-	.	2c\	Ma-	.	2e/	Ma-	.
4A\	-ter	.	4A\	-ter	.	4c\	-ter	.	4e/	-ter	.
=30	=30	=30	=30	=30	=30	=30	=30	=30	=30	=30	=30
!	!	!LO:DY:b	!	!	!	!	!	!LO:DY:b	!	!	!
2G#X\	De-	sfz <	2B\	De-	<	2d\	De-	sfz <	2f/	De-	<
.	.	[	.	.	[	.	.	[	.	.	[
.	.	>	.	.	>	.	.	>	.	.	>
.	.	]	.	.	]	.	.	]	.	.	]
4A\	-i	.	4A\	-i	.	4c\	-i	.	4e/	-i	.
4r	.	.	4r	.	.	4r	.	.	4r	.	.
!LO:LB:g=original	!	!	!LO:LB:g=original	!	!	!LO:PB:g=original	!	!	!	!	!
=31	=31	=31	=31	=31	=31	=31	=31	=31	=31	=31	=31
2F\	o-	.	2A\	o-	.	2c\	o-	.	2a/	o-	.
4F\	-ra	.	4A\	-ra	.	4d\	-ra	.	4a/	-ra	.
4F\	pro	.	4A\	pro	.	4d#X\	pro	.	4a/	pro	.
=32	=32	=32	=32	=32	=32	=32	=32	=32	=32	=32	=32
1E	no-	.	(2B\	no-	.	1e	no-	.	(2g#X/	no-	.
.	.	.	2c\)	.	.	.	.	.	2a/)	.	.
=33	=33	=33	=33	=33	=33	=33	=33	=33	=33	=33	=33
4E\	-bis	.	4B\	-bis	.	4e\	-bis	.	4g#X/	-bis	.
4r	.	.	4r	.	.	4r	.	.	4r	.	.
4E\	pec-	.	4G/	pec-	.	4c\	pec-	.	4gn/	pec-	.
4E\	-ca-	.	4G/	-ca-	.	4c\	-ca-	.	4g/	-ca-	.
=34	=34	=34	=34	=34	=34	=34	=34	=34	=34	=34	=34
2D\	-to-	.	2A\	-to-	.	2d\	-to-	.	(4g/	-to-	.
.	.	.	.	.	.	.	.	.	8f/L	.	.
.	.	.	.	.	.	.	.	.	8e/J	.	.
2G\	-ri-	.	2B\	-ri-	.	2d\	-ri-	.	8f/L	.	.
.	.	.	.	.	.	.	.	.	8a/J)	.	.
.	.	.	.	.	.	.	.	.	8g/L	-ri-	.
.	.	.	.	.	.	.	.	.	8f/J	.	.
!	!	!	!	!	!	!	!	!	!LO:LB:g=original	!	!
=35	=35	=35	=35	=35	=35	=35	=35	=35	=35	=35	=35
4C/	-bus	.	4G/	-bus	.	4c\	-bus	.	4e/	-bus	.
4C/	nunc	.	4G/	nunc	.	4c\	nunc	.	(4e/	nunc	<
4C/	et	.	4G/	et	.	4e\	et	.	4g/)	.	.
4C/	in	.	4G/	in	.	4e\	in	.	4cc\	et	[[
=36	=36	=36	=36	=36	=36	=36	=36	=36	=36	=36	=36
!	!	!LO:DY:b:rj	!	!	!LO:DY:b:rj	!	!	!LO:DY:b:rj	!	!	!LO:DY:b:rj
2C/	ho-	f	2c\	ho-	f	2g\	ho-	f	2ee\	ho-	f
4C/	-ra	.	4G/	-ra	.	4e\	-ra	.	4cc\	-ra	.
4r	.	.	4r	.	.	4r	.	.	4r	.	.
!	!	!	!	!LO:LB:g=original	!	!LO:LB:g=original	!	!	!	!	!
=37	=37	=37	=37	=37	=37	=37	=37	=37	=37	=37	=37
!LO:TX:a:t=Lento	!	!LO:DY:b:rj	!LO:TX:a:t=Lento	!	!LO:DY:b:rj	!LO:TX:a:t=Lento	!	!LO:DY:b:rj	!LO:TX:a:t=Lento	!	!LO:DY:b:rj
2.E-X 2.AA-X/	mor-	p	(2A-X/	mor-	p	2.c\	mor-	p	2.c/	mor-	p
.	.	.	4G/)	.	.	.	.	.	.	.	.
4E- 4AA-/	-tis	.	4F#X/	-tis	.	4c\	-tis	.	4c/	-tis	.
!LO:LB:g=original	!	!	!	!	!	!	!	!	!	!	!
=38	=38	=38	=38	=38	=38	=38	=38	=38	=38	=38	=38
!LO:TX:a:t=tempo 1mo	!	!	!	!	!	!	!	!	!	!	!
2E-X 2GG/	nos-	.	2F#X/	nos-	.	2c\	nos-	.	2c/	nos-	.
4D 4GG/	-trae	.	4G/	-trae	.	4B\	-trae	.	4Bn/	-trae	.
4r	.	.	4r	.	.	4r	.	.	4r	.	.
=39	=39	=39	=39	=39	=39	=39	=39	=39	=39	=39	=39
!LO:TX:a:t=tempo 1mo	!	!	!LO:TX:a:t=tempo 1mo	!	!	!LO:TX:a:t=tempo 1mo	!	!	!LO:TX:a:t=tempo 1mo	!	!
4F\	o-	.	2Bn\	o-	.	2d\	o-	.	2g/	o-	.
4G\	.	.	.	.	.	.	.	.	.	.	.
4E\	-ra	.	4G\	-ra	.	4c\	-ra	.	4g/	-ra	.
4E\	pro	.	4G\	pro	.	4c\	pro	.	8g/L	pro	.
.	.	.	.	.	.	.	.	.	8a/J	.	.
=40	=40	=40	=40	=40	=40	=40	=40	=40	=40	=40	=40
2BBn/	no-	.	2G\	no-	.	2d\	no-	.	(4.g/	no-	.
.	.	.	.	.	.	.	.	.	8f/)	.	.
4C/	-bis	.	4G\	-bis	.	4c\	-bis	.	4e/	-bis	.
4r	.	.	4r	.	.	4r	.	.	4r	.	.
!	!	!	!	!	!	!	!	!	!LO:LB:g=original	!	!
=41	=41	=41	=41	=41	=41	=41	=41	=41	=41	=41	=41
(4G\	San-	.	2c#X\	San-	.	2e\	San-	.	2a/	San-	.
4A\)	.	.	.	.	.	.	.	.	.	.	.
4F\	-cta	.	4A\	-cta	.	4d\	-cta	.	4a/	-cta	.
4F\	Ma-	.	4A\	Ma-	.	4d\	Ma-	.	8a/L	Ma-	.
.	.	.	.	.	.	.	.	.	8b-X/J	.	.
=42	=42	=42	=42	=42	=42	=42	=42	=42	=42	=42	=42
2C#X/	-ri-	.	2A\	-ri-	.	2e\	-ri-	.	(4.a/	-ri-	.
.	.	.	.	.	.	.	.	.	8g/)	.	.
4D/	-a	.	4A\	-a	.	4d\	-a	.	4f/	-a	.
4r	.	.	4r	.	.	4r	.	.	4r	.	.
!	!	!	!LO:LB:g=original	!	!	!LO:LB:g=original	!	!	!	!	!
=43	=43	=43	=43	=43	=43	=43	=43	=43	=43	=43	=43
!	!	!	!	!	!	!	!	!LO:DY:b:rj	!	!	!
2F\	o-	.	2G/	o-	.	2B/	o-	fp	(8d/L	o-	.
.	.	.	.	.	.	.	.	.	8e/	.	.
.	.	.	.	.	.	.	.	.	8f/	.	.
.	.	.	.	.	.	.	.	.	8g/J	.	.
4F\	-ra	.	4G/	-ra	.	4B/	-ra	.	8a/L	-ra	.
.	.	.	.	.	.	.	.	.	8b/J)	.	.
4F\	pro	.	4G/	pro	.	4B/	pro	.	8cc\L	pro	.
.	.	.	.	.	.	.	.	.	8dd\J	.	.
!LO:PB:g=original	!	!	!	!	!	!	!	!	!	!	!
=44	=44	=44	=44	=44	=44	=44	=44	=44	=44	=44	=44
2E\	no-	.	2G/	no-	.	2c\	no-	.	(8ee/L	no-	.
.	.	.	.	.	.	.	.	.	8b/	.	.
.	.	.	.	.	.	.	.	.	8cc/	.	.
.	.	.	.	.	.	.	.	.	8g#X/J)	.	.
2F\	-bis	.	2A/	-bis	.	2c\	-bis	.	8a/L	.	.
.	.	.	.	.	.	.	.	.	8e/	.	.
.	.	.	.	.	.	.	.	.	8f/	-bis	.
.	.	.	.	.	.	.	.	.	8d/J	.	.
=45	=45	=45	=45	=45	=45	=45	=45	=45	=45	=45	=45
2G\	San-	.	2c\	San-	.	2e\	San-	.	4g/	San-	.
.	.	.	.	.	.	.	.	.	(8dd/L	.	.
.	.	.	.	.	.	.	.	.	8cc/J)	.	.
4G\	-cta	.	4B\	-cta	.	4d\	-cta	.	8b/L	-cta	.
.	.	.	.	.	.	.	.	.	8f/	.	.
4G\	Ma-	.	4B\	Ma-	.	4d\	Ma-	.	8a/	Ma-	.
.	.	.	.	.	.	.	.	.	8g/J	.	.
=46	=46	=46	=46	=46	=46	=46	=46	=46	=46	=46	=46
2C\	-ri-	.	2G/	-ri-	.	4B/	-ri-	.	2f/	-ri-	.
.	.	.	.	.	.	4G/	.	.	.	.	.
4C\	-a	.	4G/	-a	.	4c\	-a	.	4e/	-a	.
4r	.	.	4r	.	.	4r	.	.	4r	.	.
!	!	!	!	!	!	!	!	!	!LO:LB:g=original	!	!
=47	=47	=47	=47	=47	=47	=47	=47	=47	=47	=47	=47
!	!	!LO:DY:b:rj	!	!	!LO:DY:b:rj	!LO:TX:t=P:problem:2g poprawione na 2e	!	!LO:DY:b:rj	!	!	!LO:DY:b:rj
2B-X\	o-	f	2c\	o-	f	2e\	o-	f	2cc\	o-	f
4B-\	-ra	.	4c\	-ra	.	4g\	-ra	.	4cc\	-ra	.
!	!	!	!	!	!	!LO:TX:t=P:problem:4g poprawione na 4e	!	!	!	!	!
4B-\	pro	.	4c\	pro	.	4e\	pro	.	4cc\	pro	.
=48	=48	=48	=48	=48	=48	=48	=48	=48	=48	=48	=48
2A\	no-	.	2c\	no-	.	2f\	no-	.	(4dd\	no-	.
.	.	.	.	.	.	.	.	.	4cc\)	.	.
4A\	-bis	.	2c\	-bis	.	2f\	bis	.	4a\	-bis	.
4r	.	.	.	.	.	.	.	.	4f\	.	.
!	!	!	!LO:LB:g=original	!	!	!LO:LB:g=original	!	!	!	!	!
=49	=49	=49	=49	=49	=49	=49	=49	=49	=49	=49	=49
2A 2G\	San-	.	2c#X\	San-	.	2e\	San-	.	2a/	San-	.
4A 4G\	-cta	.	4c#\	-cta	.	4e\	-cta	.	4a/	-cta	.
4A 4G\	Ma-	.	4c#\	Ma-	.	4e\	Ma-	.	4a/	Ma-	.
=50	=50	=50	=50	=50	=50	=50	=50	=50	=50	=50	=50
2A 2F\	-ri-	.	2A\	-ri-	.	2d\	-ri-	.	(4b-X/	-ri-	.
.	.	.	.	.	.	.	.	.	4a/)	.	.
2A 2F\	-a	.	2A\	-a	.	2d\	-a	.	(4f/	-a	.
.	.	.	.	.	.	.	.	.	4d/)	.	.
!LO:LB:g=original	!	!	!	!	!	!	!	!	!	!	!
=51	=51	=51	=51	=51	=51	=51	=51	=51	=51	=51	=51
!	!	!LO:DY:b:rj	!	!	!LO:DY:b:rj	!	!	!LO:DY:b:rj	!	!	!LO:DY:b:rj
2F\	o-	p	2G/	o-	p	2B/	o-	p	8d/L	o-	p
.	.	.	.	.	.	.	.	.	(8e/	.	.
.	.	.	.	.	.	.	.	.	8f/	.	.
.	.	.	.	.	.	.	.	.	8g/J	.	.
4F\	-ra	.	4G/	-ra	.	4B/	-ra	.	8a/L)	-ra	.
.	.	.	.	.	.	.	.	.	8b/J	.	.
4F\	pro	.	4G/	pro	.	4B/	pro	.	8cc/L	pro	.
.	.	.	.	.	.	.	.	.	8dd/J	.	.
=52	=52	=52	=52	=52	=52	=52	=52	=52	=52	=52	=52
2E\	no-	.	2G/	no-	.	2c\	no-	.	(8ee/L	no-	.
.	.	.	.	.	.	.	.	.	8b/	.	.
.	.	.	.	.	.	.	.	.	8cc/	.	.
.	.	.	.	.	.	.	.	.	8g#X/J)	.	.
2F\	-bis	.	2A/	-bis	.	2c\	-bis	.	8a/L	-bis	.
.	.	.	.	.	.	.	.	.	8e/	.	.
.	.	.	.	.	.	.	.	.	8f/	.	.
.	.	.	.	.	.	.	.	.	8d/J	.	.
!	!	!	!	!	!	!	!	!	!LO:LB:g=original	!	!
=53	=53	=53	=53	=53	=53	=53	=53	=53	=53	=53	=53
2G\	A-	.	2G/	A-	.	2e\	A-	.	2g/	A-	.
4G\	-ve	.	4G/	-ve	.	4e\	-ve	.	4g/	-ve	.
4G\	Ma-	.	4G/	Ma-	.	4e\	Ma-	.	4g/	Ma-	.
=54	=54	=54	=54	=54	=54	=54	=54	=54	=54	=54	=54
!	!	!	!	!	!LO:DY:b	!	!	!LO:HP:b:t=cres	!	!	!
[1G	-ri-	.	(1e-X	-ri-	sfz	(1f#X	-ri-	<	(1a	-ri-	.
=55	=55	=55	=55	=55	=55	=55	=55	=55	=55	=55	=55
!	!	!LO:HP:b:t=cres	!	!	!LO:HP:b:t=cres	!	!	!LO:HP:b:t=cres	!	!	!LO:HP:b:t=cres
1G]	.	<	1d)	.	<	1fn)	.	<	1bnt)	.	<
!	!	!	!LO:LB:g=original	!	!	!LO:LB:g=original	!	!	!	!	!
=56	=56	=56	=56	=56	=56	=56	=56	=56	=56	=56	=56
!	!	!LO:DY:b:rj	!	!	!LO:DY:b:rj	!	!	!LO:DY:b:rj	!	!	!LO:DY:b:rj
2C\	-a	f	2c\	-a	f	2e\	-a	f	2cc\	-a	f
4r	.	.	4r	.	.	4r	.	.	4r	.	.
!	!	!LO:DY:b:rj	!	!	!LO:DY:b:rj	!	!	!LO:DY:b:rj	!	!	!
4C\	Ma-	p <	4G/	Ma-	p	4c\	Ma-	p	4e/	Ma-	<[
=57	=57	=57	=57	=57	=57	=57	=57	=57	=57	=57	=57
1C	-ri-	[	2G/	-ri-	<	1c	-ri-	<	(2e/	-ri-	>
.	.	>	.	.	[	.	.	[	.	.	.
.	.	.	2A-X/	.	>	.	.	>	2f/)	.	]
.	.	]	.	.	]	.	.	]	.	.	.
=58	=58	=58	=58	=58	=58	=58	=58	=58	=58	=58	=58
2C;\	-a	.	2G/	-a	.	2c\	-a	]	2e/	-a	.
2r	.	.	2r	.	.	2r	.	.	2r	.	.
==	==	==	==	==	==	==	==	==	==	==	==
*-	*-	*-	*-	*-	*-	*-	*-	*-	*-	*-	*-
!!!system-decoration: [(s1,s2,s3,s4)]
!!!RDF**kern: i = editorial accidental
!!!RDF**kern: > = above
!!!RDF**kern: < = below
!!!RDF**kern: N = linked
!!!RDF**dynam: > = "dim.", fontstyle= "italic"
!!!RDF**kern: | = vertical stroke
!!!ENC: Berenika Jozajtis
!!!EED: Katarzyna Serwa
!!!END: 2023-10-31
!!!EEV: 2024-04-30
